X:11121
T:Intervals
M:none
L:1/1
K:C
V:1
   [FF]|[F_G]|[FG]|[F_A]|[FA]|[F_B]|[FB]|[Fc]|[F_d]|[Fd]|[F_e]|[Fe]|[Ff]||
w:Unison  m2   M2   m3    M3   P4 Tritone P5    m6   M6   m7    M7  Octave
